svg/furkot/fillingstation.svg

<svg viewBox="0 0 512 512" xmlns="http://www.w3.org/2000/svg"><path d="m78.443 0c-15.755 0-28.443 12.688-28.443 28.443v455.114c0 14.222 14.221 28.443 28.443 28.443h256.003c14.215 0 28.436-14.221 28.436-28.443v-142.222h14.227c14.216 0 14.216 14.221 14.216 14.221v56.89c0 28.442 14.221 42.669 42.674 42.669 28.437 0 42.663-14.222 42.663-42.669 0-33.184 0-127.996 0-156.444 0-28.437-56.889-56.889-56.889-85.327v-85.327h-28.443l-28.443-28.448v-28.437c0-15.76-12.683-28.448-28.436-28.448zm28.442 56.89h199.108v113.78h-199.108zm255.997 85.327h28.443v42.669c0 28.448 56.89 56.89 56.89 85.337v142.218c.005 14.226-14.211 14.226-14.211 14.226s-14.226 0-14.226-14.221c0 0 0-56.89 0-71.111 0-14.216-14.222-28.443-28.438-28.443-9.484 0-28.448 0-28.448 0z"/></svg>

<svg viewBox="0 0 512 512" xmlns="http://www.w3.org/2000/svg"><path d="M 78.443 0 L 78.443 0 C 62.688 0 50 12.688 50 28.443 L 50 483.557 C 50 497.779 64.221 512 78.443 512 L 334.446 512 C 348.661 512 362.882 497.779 362.882 483.557 L 362.882 341.335 L 377.109 341.335 C 391.325 341.335 391.325 355.556 391.325 355.556 L 391.325 412.446 C 391.325 440.888 405.546 455.115 433.999 455.115 C 462.436 455.115 476.662 440.893 476.662 412.446 C 476.662 379.262 476.662 284.45 476.662 256.002 C 476.662 227.565 419.773 199.113 419.773 170.675 L 419.773 85.348 L 391.33 85.348 L 362.887 56.9 L 362.887 28.463 C 362.887 12.703 350.204 0.015 334.451 0.015 Z M 106.885 56.89 L 305.993 56.89 L 305.993 170.67 L 106.885 170.67 Z M 362.882 142.217 L 391.325 142.217 C 391.325 142.217 391.325 165.918 391.325 184.886 C 391.325 213.334 448.215 241.776 448.215 270.223 L 448.215 412.441 C 448.22 426.667 434.004 426.667 434.004 426.667 C 434.004 426.667 419.778 426.667 419.778 412.446 C 419.778 412.446 419.778 355.556 419.778 341.335 C 419.778 327.119 405.556 312.892 391.34 312.892 C 381.856 312.892 362.892 312.892 362.892 312.892 Z"/></svg>
